X:142
T:Old Rail
R:reel
C:Bruce Osborne - Mar. 2004
Z:abc by bosborne@kos.net
M:2/4
L:1/8
K:Amaj
cd|e>e fe|cA af|e>e cA|E>c dc|\
B>A Bc|d>d cB|1 AE AB|c2:|2AE cB|A2
|:CD|E>F ED|CE AB|c>a gf|e>c dc|\
B>A Bc|d>d cB|1 AE AB|c2:|2AE cB|A2||
